X: 6775
T: Chapel Bell, The
R: jig
M: 6/8
K: Edorian
|:d/c/|BEE EFA|B^AB d2 f|edB BAF|d2 e dB^A|
B2 E EF/G/A|B^AB def|edB BAF|AFD E2:|
|:F/A/|B2 e efe|def f2 e|d2 B BAF|d2 e dB^A|
Be/e/e efe|dd/e/f f2 e|dBB BAF|AFD E2:|

